images/LOGOS_CLIENTES/ACA.svg

<svg width="85" height="33" viewBox="0 0 85 33" fill="none" xmlns="http://www.w3.org/2000/svg">
<path d="M2.08812 24.1067C1.1199 23.4596 -0.00378005 21.3335 -0.00195089 20.1521C0.000795587 18.3902 0.501628 17.5005 4.49633 12.1609C13.5612 0.0441493 13.4198 0.196739 15.7413 0.0273445C18.2568 -0.15621 19.0422 0.47091 22.5137 5.43467L23.2599 6.50165L22.6346 8.04286C22.1658 9.19832 21.9754 10.1654 21.8738 11.9068L21.7382 14.2295L19.2144 10.7742C17.8263 8.87376 16.5117 7.24964 16.2931 7.16502C15.7745 6.96425 15.1131 7.74092 11.0208 13.3567C9.22358 15.8229 7.75316 18.0369 7.75316 18.2767C7.75316 18.6864 8.05757 18.7127 12.8066 18.7127H17.86V24.6404H10.3734C3.00169 24.6404 2.87451 24.6322 2.08812 24.1067Z" fill="black"/>
<path d="M32.0825 26.8924C29.9003 26.132 27.0098 24.1527 25.8593 22.6312C25.381 21.9986 24.5876 20.6155 24.0961 19.5577C23.3127 17.8714 23.2026 17.2207 23.2026 14.2743C23.2026 11.1627 23.2824 10.7506 24.28 8.70625C25.6263 5.94751 27.9707 3.6864 30.9362 2.2865C32.8883 1.36495 33.5212 1.2331 35.9964 1.23219C39.3641 1.23091 41.9186 1.9294 44.1601 3.46428C46.6264 5.15311 46.653 5.32052 44.8571 7.85935L43.2958 10.0665L41.5887 8.76301C38.1044 6.10269 34.1349 6.1279 31.2915 8.82838C28.2711 11.6969 28.2436 16.7271 31.2329 19.5243C32.7528 20.9466 34.1432 21.4913 36.2329 21.4833C40.0587 21.4687 39.987 21.5394 51.0317 6.90424C54.503 2.30449 54.9069 1.96076 57.0506 1.78143C58.2614 1.68014 59.1477 1.8001 59.8339 2.15807C60.5142 2.51296 62.4813 5.05341 65.8993 9.99125C73.0838 20.3707 73.3602 20.8479 73.0751 22.3806C72.9259 23.1834 72.3854 24.0973 71.5785 24.9112L70.3156 26.1852H54.9201L55.1132 20.6524L60.0919 20.5592C62.8302 20.5079 65.208 20.3273 65.376 20.1578C65.5617 19.9705 64.2909 17.9031 62.1354 14.8859C57.5281 8.43685 57.78 8.74851 57.1752 8.74851C56.8829 8.74851 54.1431 12.0683 50.9752 16.261C44.8195 24.408 43.9659 25.2071 39.7839 26.7385C37.1776 27.6928 34.5314 27.7457 32.0825 26.8924Z" fill="black"/>
<path d="M1.41497 32.9423H0.500398L1.89394 28.8701H2.9938L4.38537 32.9423H3.47079L2.45964 29.8007H2.4281L1.41497 32.9423ZM1.35781 31.3417H3.5181V32.0138H1.35781V31.3417Z" fill="black"/>
<path d="M7.36464 28.8701H8.21811V31.5147C8.21811 31.8116 8.14781 32.0714 8.0072 32.2941C7.86792 32.5168 7.67278 32.6905 7.4218 32.8151C7.17081 32.9384 6.87844 33 6.54467 33C6.20959 33 5.91656 32.9384 5.66558 32.8151C5.41459 32.6905 5.21946 32.5168 5.08017 32.2941C4.94088 32.0714 4.87124 31.8116 4.87124 31.5147V28.8701H5.72471V31.4411C5.72471 31.5962 5.75822 31.7341 5.82523 31.8547C5.89356 31.9753 5.98949 32.0701 6.11301 32.139C6.23653 32.208 6.38042 32.2424 6.54467 32.2424C6.71024 32.2424 6.85413 32.208 6.97634 32.139C7.09986 32.0701 7.19513 31.9753 7.26214 31.8547C7.33047 31.7341 7.36464 31.5962 7.36464 31.4411V28.8701Z" fill="black"/>
<path d="M8.76656 29.58V28.8701H12.0819V29.58H10.846V32.9423H10.0024V29.58H8.76656Z" fill="black"/>
<path d="M16.1531 30.9062C16.1531 31.3503 16.0697 31.7281 15.9028 32.0396C15.7372 32.3511 15.5112 32.5891 15.2248 32.7534C14.9396 32.9165 14.619 32.998 14.2629 32.998C13.9041 32.998 13.5822 32.9158 13.2971 32.7515C13.0119 32.5871 12.7865 32.3491 12.621 32.0376C12.4554 31.7261 12.3726 31.349 12.3726 30.9062C12.3726 30.4622 12.4554 30.0844 12.621 29.7729C12.7865 29.4613 13.0119 29.2241 13.2971 29.061C13.5822 28.8966 13.9041 28.8145 14.2629 28.8145C14.619 28.8145 14.9396 28.8966 15.2248 29.061C15.5112 29.2241 15.7372 29.4613 15.9028 29.7729C16.0697 30.0844 16.1531 30.4622 16.1531 30.9062ZM15.2878 30.9062C15.2878 30.6186 15.2451 30.376 15.1597 30.1785C15.0756 29.981 14.9567 29.8312 14.8029 29.7291C14.6492 29.627 14.4692 29.576 14.2629 29.576C14.0566 29.576 13.8765 29.627 13.7228 29.7291C13.5691 29.8312 13.4495 29.981 13.3641 30.1785C13.28 30.376 13.2379 30.6186 13.2379 30.9062C13.2379 31.1939 13.28 31.4365 13.3641 31.634C13.4495 31.8315 13.5691 31.9813 13.7228 32.0834C13.8765 32.1854 14.0566 32.2365 14.2629 32.2365C14.4692 32.2365 14.6492 32.1854 14.8029 32.0834C14.9567 31.9813 15.0756 31.8315 15.1597 31.634C15.2451 31.4365 15.2878 31.1939 15.2878 30.9062Z" fill="black"/>
<path d="M16.7853 28.8701H17.8379L18.9496 31.6061H18.9969L20.1086 28.8701H21.1611V32.9423H20.3333V30.2918H20.2998L19.2551 32.9225H18.6914L17.6467 30.2819H17.6132V32.9423H16.7853V28.8701Z" fill="black"/>
<path d="M25.5738 30.9062C25.5738 31.3503 25.4904 31.7281 25.3235 32.0396C25.1579 32.3511 24.9319 32.5891 24.6455 32.7534C24.3603 32.9165 24.0397 32.998 23.6836 32.998C23.3249 32.998 23.0029 32.9158 22.7178 32.7515C22.4326 32.5871 22.2073 32.3491 22.0417 32.0376C21.8761 31.7261 21.7933 31.349 21.7933 30.9062C21.7933 30.4622 21.8761 30.0844 22.0417 29.7729C22.2073 29.4613 22.4326 29.2241 22.7178 29.061C23.0029 28.8966 23.3249 28.8145 23.6836 28.8145C24.0397 28.8145 24.3603 28.8966 24.6455 29.061C24.9319 29.2241 25.1579 29.4613 25.3235 29.7729C25.4904 30.0844 25.5738 30.4622 25.5738 30.9062ZM24.7085 30.9062C24.7085 30.6186 24.6658 30.376 24.5804 30.1785C24.4963 29.981 24.3774 29.8312 24.2237 29.7291C24.0699 29.627 23.8899 29.576 23.6836 29.576C23.4773 29.576 23.2973 29.627 23.1435 29.7291C22.9898 29.8312 22.8702 29.981 22.7848 30.1785C22.7007 30.376 22.6586 30.6186 22.6586 30.9062C22.6586 31.1939 22.7007 31.4365 22.7848 31.634C22.8702 31.8315 22.9898 31.9813 23.1435 32.0834C23.2973 32.1854 23.4773 32.2365 23.6836 32.2365C23.8899 32.2365 24.0699 32.1854 24.2237 32.0834C24.3774 31.9813 24.4963 31.8315 24.5804 31.634C24.6658 31.4365 24.7085 31.1939 24.7085 30.9062Z" fill="black"/>
<path d="M26.7077 28.8701L27.6834 31.9641H27.7208L28.6985 28.8701H29.6446L28.253 32.9423H27.1532L25.7596 28.8701H26.7077Z" fill="black"/>
<path d="M30.9839 28.8701V32.9423H30.1305V28.8701H30.9839Z" fill="black"/>
<path d="M31.6861 32.9423V28.8701H32.5396V32.2325H34.2702V32.9423H31.6861Z" fill="black"/>
<path d="M39.6818 30.2958H38.8184C38.8027 30.1831 38.7705 30.083 38.7218 29.9956C38.6732 29.9067 38.6108 29.8312 38.5346 29.7689C38.4584 29.7066 38.3703 29.6589 38.2705 29.6257C38.1719 29.5926 38.0648 29.576 37.9492 29.576C37.7402 29.576 37.5583 29.6284 37.4032 29.7331C37.2481 29.8365 37.1279 29.9876 37.0425 30.1864C36.9571 30.384 36.9144 30.6239 36.9144 30.9062C36.9144 31.1965 36.9571 31.4404 37.0425 31.638C37.1292 31.8355 37.2501 31.9846 37.4052 32.0853C37.5602 32.1861 37.7396 32.2365 37.9433 32.2365C38.0576 32.2365 38.1634 32.2212 38.2606 32.1907C38.3592 32.1602 38.4465 32.1158 38.5228 32.0575C38.599 31.9979 38.662 31.9256 38.712 31.8408C38.7632 31.7559 38.7987 31.6592 38.8184 31.5505L39.6818 31.5544C39.6594 31.7414 39.6036 31.9216 39.5142 32.0953C39.4262 32.2676 39.3072 32.422 39.1574 32.5586C39.009 32.6938 38.8316 32.8012 38.6253 32.8807C38.4203 32.9589 38.1883 32.998 37.9295 32.998C37.5694 32.998 37.2475 32.9158 36.9636 32.7515C36.6811 32.5871 36.4577 32.3491 36.2935 32.0376C36.1305 31.7261 36.0491 31.349 36.0491 30.9062C36.0491 30.4622 36.1319 30.0844 36.2974 29.7729C36.463 29.4613 36.6877 29.2241 36.9715 29.061C37.2554 28.8966 37.5747 28.8145 37.9295 28.8145C38.1634 28.8145 38.3802 28.8476 38.5799 28.9139C38.781 28.9802 38.959 29.0769 39.1141 29.2042C39.2691 29.3301 39.3953 29.4845 39.4925 29.6675C39.5911 29.8504 39.6542 30.0598 39.6818 30.2958Z" fill="black"/>
<path d="M40.2938 32.9423V28.8701H41.1472V32.2325H42.8778V32.9423H40.2938Z" fill="black"/>
<path d="M45.9364 28.8701H46.7899V31.5147C46.7899 31.8116 46.7196 32.0714 46.579 32.2941C46.4397 32.5168 46.2446 32.6905 45.9936 32.8151C45.7426 32.9384 45.4502 33 45.1165 33C44.7814 33 44.4884 32.9384 44.2374 32.8151C43.9864 32.6905 43.7913 32.5168 43.652 32.2941C43.5127 32.0714 43.443 31.8116 43.443 31.5147V28.8701H44.2965V31.4411C44.2965 31.5962 44.33 31.7341 44.397 31.8547C44.4654 31.9753 44.5613 32.0701 44.6848 32.139C44.8083 32.208 44.9522 32.2424 45.1165 32.2424C45.282 32.2424 45.4259 32.208 45.5481 32.139C45.6717 32.0701 45.7669 31.9753 45.8339 31.8547C45.9023 31.7341 45.9364 31.5962 45.9364 31.4411V28.8701Z" fill="black"/>
<path d="M47.4921 32.9423V28.8701H49.1084C49.4053 28.8701 49.653 28.9145 49.8515 29.0034C50.0499 29.0922 50.199 29.2155 50.2989 29.3732C50.3988 29.5296 50.4487 29.7099 50.4487 29.914C50.4487 30.0731 50.4172 30.213 50.3541 30.3336C50.291 30.4529 50.2043 30.551 50.0939 30.6279C49.9848 30.7034 49.86 30.7571 49.7194 30.7889V30.8287C49.8731 30.8353 50.017 30.8791 50.1511 30.9599C50.2864 31.0408 50.3961 31.1541 50.4802 31.2999C50.5643 31.4444 50.6064 31.6167 50.6064 31.8169C50.6064 32.033 50.5532 32.2259 50.4467 32.3955C50.3416 32.5639 50.1859 32.6971 49.9796 32.7952C49.7733 32.8933 49.519 32.9423 49.2168 32.9423H47.4921ZM48.3456 32.2384H49.0414C49.2792 32.2384 49.4527 32.1927 49.5617 32.1013C49.6708 32.0085 49.7253 31.8852 49.7253 31.7314C49.7253 31.6187 49.6984 31.5193 49.6445 31.4332C49.5906 31.347 49.5138 31.2794 49.4139 31.2303C49.3153 31.1813 49.1977 31.1568 49.0611 31.1568H48.3456V32.2384ZM48.3456 30.5742H48.9783C49.0952 30.5742 49.199 30.5536 49.2897 30.5125C49.3817 30.4701 49.454 30.4105 49.5065 30.3336C49.5604 30.2567 49.5873 30.1646 49.5873 30.0572C49.5873 29.9101 49.5354 29.7914 49.4316 29.7013C49.3291 29.6111 49.1833 29.5661 48.9941 29.5661H48.3456V30.5742Z" fill="black"/>
<path d="M53.1422 32.9423H52.2276L53.6211 28.8701H54.721L56.1126 32.9423H55.198L54.1868 29.8007H54.1553L53.1422 32.9423ZM53.085 31.3417H55.2453V32.0138H53.085V31.3417Z" fill="black"/>
<path d="M56.5984 32.9423V28.8701H58.1911C58.4959 28.8701 58.7561 28.9251 58.9716 29.0352C59.1884 29.1439 59.3533 29.2983 59.4663 29.4985C59.5807 29.6973 59.6378 29.9313 59.6378 30.2004C59.6378 30.4708 59.58 30.7034 59.4644 30.8983C59.3487 31.0918 59.1812 31.2403 58.9617 31.3437C58.7436 31.4471 58.4795 31.4988 58.1694 31.4988H57.103V30.8068H58.0314C58.1943 30.8068 58.3297 30.7843 58.4374 30.7392C58.5452 30.6941 58.6253 30.6265 58.6779 30.5364C58.7318 30.4463 58.7587 30.3342 58.7587 30.2004C58.7587 30.0651 58.7318 29.9512 58.6779 29.8584C58.6253 29.7656 58.5445 29.6953 58.4355 29.6476C58.3277 29.5985 58.1917 29.574 58.0275 29.574H57.4519V32.9423H56.5984ZM58.7784 31.0892L59.7817 32.9423H58.8395L57.8579 31.0892H58.7784Z" fill="black"/>
<path d="M62.9177 30.1864C62.8901 30.0897 62.8513 30.0042 62.8014 29.9299C62.7514 29.8544 62.6903 29.7908 62.6181 29.7391C62.5471 29.686 62.4656 29.6456 62.3736 29.6178C62.283 29.5899 62.1825 29.576 62.0721 29.576C61.8658 29.576 61.6844 29.6277 61.5281 29.7311C61.373 29.8345 61.2521 29.985 61.1654 30.1825C61.0787 30.3787 61.0353 30.6186 61.0353 30.9023C61.0353 31.1859 61.078 31.4272 61.1634 31.626C61.2488 31.8249 61.3697 31.9766 61.5261 32.0814C61.6825 32.1848 61.8671 32.2365 62.08 32.2365C62.2731 32.2365 62.438 32.202 62.5747 32.1331C62.7127 32.0628 62.8178 31.9641 62.8901 31.8368C62.9637 31.7095 63.0005 31.5591 63.0005 31.3854L63.1739 31.4113H62.1332V30.7631H63.8224V31.2761C63.8224 31.634 63.7475 31.9415 63.5977 32.1987C63.4479 32.4545 63.2416 32.652 62.9788 32.7912C62.716 32.9291 62.415 32.998 62.076 32.998C61.6976 32.998 61.3651 32.9138 61.0787 32.7455C60.7922 32.5758 60.5688 32.3352 60.4085 32.0237C60.2495 31.7109 60.17 31.3397 60.17 30.9102C60.17 30.5801 60.2173 30.2859 60.3119 30.0274C60.4078 29.7676 60.5419 29.5475 60.714 29.3672C60.8862 29.1869 61.0865 29.0498 61.3152 28.9556C61.5438 28.8615 61.7915 28.8145 62.0583 28.8145C62.2869 28.8145 62.4998 28.8483 62.6969 28.9159C62.894 28.9821 63.0688 29.0763 63.2212 29.1982C63.375 29.3202 63.5004 29.4653 63.5977 29.6337C63.6949 29.8007 63.7573 29.985 63.7849 30.1864H62.9177Z" fill="black"/>
<path d="M64.4635 32.9423V28.8701H67.1835V29.58H65.3169V30.5503H67.0436V31.2602H65.3169V32.2325H67.1914V32.9423H64.4635Z" fill="black"/>
<path d="M71.2385 28.8701V32.9423H70.5013L68.7451 30.3793H68.7156V32.9423H67.8621V28.8701H68.6111L70.3535 31.4312H70.389V28.8701H71.2385Z" fill="black"/>
<path d="M71.7899 29.58V28.8701H75.1053V29.58H73.8694V32.9423H73.0258V29.58H71.7899Z" fill="black"/>
<path d="M76.5047 28.8701V32.9423H75.6512V28.8701H76.5047Z" fill="black"/>
<path d="M80.5833 28.8701V32.9423H79.8462L78.0899 30.3793H78.0604V32.9423H77.2069V28.8701H77.9559L79.6983 31.4312H79.7338V28.8701H80.5833Z" fill="black"/>
<path d="M84.998 30.9062C84.998 31.3503 84.9146 31.7281 84.7477 32.0396C84.5821 32.3511 84.3561 32.5891 84.0697 32.7534C83.7845 32.9165 83.4639 32.998 83.1078 32.998C82.7491 32.998 82.4271 32.9158 82.142 32.7515C81.8568 32.5871 81.6315 32.3491 81.4659 32.0376C81.3003 31.7261 81.2175 31.349 81.2175 30.9062C81.2175 30.4622 81.3003 30.0844 81.4659 29.7729C81.6315 29.4613 81.8568 29.2241 82.142 29.061C82.4271 28.8966 82.7491 28.8145 83.1078 28.8145C83.4639 28.8145 83.7845 28.8966 84.0697 29.061C84.3561 29.2241 84.5821 29.4613 84.7477 29.7729C84.9146 30.0844 84.998 30.4622 84.998 30.9062ZM84.1328 30.9062C84.1328 30.6186 84.09 30.376 84.0046 30.1785C83.9205 29.981 83.8016 29.8312 83.6479 29.7291C83.4941 29.627 83.3141 29.576 83.1078 29.576C82.9015 29.576 82.7215 29.627 82.5677 29.7291C82.414 29.8312 82.2944 29.981 82.209 30.1785C82.1249 30.376 82.0828 30.6186 82.0828 30.9062C82.0828 31.1939 82.1249 31.4365 82.209 31.634C82.2944 31.8315 82.414 31.9813 82.5677 32.0834C82.7215 32.1854 82.9015 32.2365 83.1078 32.2365C83.3141 32.2365 83.4941 32.1854 83.6479 32.0834C83.8016 31.9813 83.9205 31.8315 84.0046 31.634C84.09 31.4365 84.1328 31.1939 84.1328 30.9062Z" fill="black"/>
</svg>

<svg width="85" height="33" fill="none" xmlns="http://www.w3.org/2000/svg"><path d="M2.088 24.107c-.968-.647-2.092-2.773-2.09-3.955.003-1.762.504-2.652 4.498-7.991C13.561.044 13.42.197 15.741.027c2.516-.183 3.301.444 6.773 5.408l.746 1.067-.625 1.54c-.47 1.156-.66 2.123-.761 3.865l-.136 2.322-2.524-3.455c-1.388-1.9-2.702-3.524-2.92-3.609-.52-.2-1.18.576-5.273 6.192-1.797 2.466-3.268 4.68-3.268 4.92 0 .41.305.436 5.054.436h5.053v5.927h-7.487c-7.371 0-7.498-.008-8.285-.533ZM32.083 26.892c-2.183-.76-5.073-2.74-6.224-4.26-.478-.633-1.271-2.017-1.763-3.074-.783-1.687-.893-2.337-.893-5.284 0-3.111.08-3.523 1.077-5.568 1.346-2.758 3.69-5.02 6.656-6.42 1.952-.921 2.585-1.053 5.06-1.054 3.368-.001 5.923.697 8.164 2.232 2.466 1.69 2.493 1.857.697 4.395l-1.561 2.207-1.707-1.303c-3.485-2.66-7.454-2.635-10.297.065-3.02 2.869-3.048 7.9-.06 10.696 1.52 1.423 2.911 1.967 5 1.96 3.827-.015 3.755.055 14.8-14.58 3.471-4.6 3.875-4.943 6.019-5.123 1.21-.1 2.097.02 2.783.377.68.355 2.647 2.895 6.065 7.833 7.185 10.38 7.461 10.857 7.176 12.39-.15.802-.69 1.716-1.496 2.53l-1.263 1.274H54.92l.193-5.533 4.979-.093c2.738-.051 5.116-.232 5.284-.401.186-.188-1.085-2.255-3.24-5.272-4.608-6.45-4.356-6.137-4.96-6.137-.293 0-3.033 3.32-6.2 7.512-6.157 8.147-7.01 8.946-11.192 10.477-2.606.955-5.253 1.008-7.701.154ZM1.415 32.942H.5l1.394-4.072h1.1l1.391 4.072h-.914L2.46 29.801h-.032l-1.013 3.141Zm-.057-1.6h2.16v.672h-2.16v-.672ZM7.365 28.87h.853v2.645c0 .297-.07.556-.21.78-.14.222-.335.395-.586.52a1.967 1.967 0 0 1-.877.185c-.335 0-.628-.062-.88-.185a1.415 1.415 0 0 1-.585-.52 1.439 1.439 0 0 1-.209-.78V28.87h.854v2.571c0 .155.033.293.1.414.069.12.164.215.288.284a.87.87 0 0 0 .432.103c.165 0 .31-.034.431-.103a.722.722 0 0 0 .286-.284.824.824 0 0 0 .103-.414v-2.57ZM8.767 29.58v-.71h3.315v.71h-1.236v3.362h-.844V29.58H8.767ZM16.153 30.906c0 .444-.083.822-.25 1.134-.166.311-.392.55-.678.713a1.903 1.903 0 0 1-.962.245c-.359 0-.68-.082-.966-.246a1.748 1.748 0 0 1-.676-.714c-.166-.312-.248-.689-.248-1.132 0-.444.082-.822.248-1.133.165-.312.39-.549.676-.712.285-.164.607-.247.966-.247.356 0 .677.083.962.247.286.163.512.4.678.712.167.311.25.69.25 1.133Zm-.865 0c0-.287-.043-.53-.128-.727a.983.983 0 0 0-.357-.45.953.953 0 0 0-.54-.153.953.953 0 0 0-.54.153.996.996 0 0 0-.359.45c-.084.197-.126.44-.126.727 0 .288.042.53.126.728a.996.996 0 0 0 .359.45.954.954 0 0 0 .54.152.954.954 0 0 0 .54-.153.983.983 0 0 0 .357-.449c.085-.198.128-.44.128-.728ZM16.785 28.87h1.053l1.112 2.736h.047l1.112-2.736h1.052v4.072h-.828v-2.65H20.3l-1.045 2.63h-.564l-1.044-2.64h-.034v2.66h-.828V28.87ZM25.574 30.906c0 .444-.084.822-.25 1.134-.166.311-.392.55-.679.713a1.903 1.903 0 0 1-.961.245 1.9 1.9 0 0 1-.966-.246 1.749 1.749 0 0 1-.676-.714c-.166-.312-.249-.689-.249-1.132 0-.444.083-.822.249-1.133.165-.312.39-.549.676-.712.285-.164.607-.247.966-.247.356 0 .676.083.961.247.287.163.513.4.678.712.167.311.25.69.25 1.133Zm-.866 0c0-.287-.042-.53-.128-.727a.984.984 0 0 0-.356-.45.954.954 0 0 0-.54-.153.954.954 0 0 0-.54.153.996.996 0 0 0-.36.45c-.083.197-.125.44-.125.727 0 .288.042.53.126.728a.996.996 0 0 0 .358.45.954.954 0 0 0 .54.152.954.954 0 0 0 .54-.153.984.984 0 0 0 .357-.449c.086-.198.129-.44.129-.728ZM26.708 28.87l.975 3.094h.038l.977-3.094h.947l-1.392 4.072h-1.1L25.76 28.87h.948ZM30.984 28.87v4.072h-.854V28.87h.854ZM31.686 32.942V28.87h.854v3.363h1.73v.71h-2.584ZM39.682 30.296h-.864a.853.853 0 0 0-.096-.3.761.761 0 0 0-.187-.227.824.824 0 0 0-.264-.143 1.004 1.004 0 0 0-.322-.05.952.952 0 0 0-.546.157 1.002 1.002 0 0 0-.36.453 1.811 1.811 0 0 0-.129.72c0 .29.043.534.128.732a.989.989 0 0 0 .363.447c.155.101.335.151.538.151.115 0 .22-.015.318-.045a.767.767 0 0 0 .451-.35.85.85 0 0 0 .106-.29l.864.003a1.624 1.624 0 0 1-1.056 1.326 1.941 1.941 0 0 1-.697.118c-.36 0-.681-.082-.965-.246a1.744 1.744 0 0 1-.67-.714c-.163-.312-.245-.689-.245-1.132 0-.444.083-.822.248-1.133a1.74 1.74 0 0 1 .675-.712c.283-.164.603-.247.957-.247.234 0 .451.034.65.1.202.066.38.163.535.29.155.126.281.28.379.463.098.183.161.393.189.629ZM40.294 32.942V28.87h.853v3.363h1.73v.71h-2.583ZM45.936 28.87h.854v2.645c0 .297-.07.556-.211.78-.14.222-.334.395-.585.52a1.967 1.967 0 0 1-.877.185c-.336 0-.629-.062-.88-.185a1.415 1.415 0 0 1-.585-.52 1.439 1.439 0 0 1-.209-.78V28.87h.854v2.571c0 .155.033.293.1.414.068.12.164.215.288.284a.87.87 0 0 0 .431.103c.166 0 .31-.034.432-.103a.722.722 0 0 0 .286-.284.824.824 0 0 0 .102-.414v-2.57ZM47.492 32.942V28.87h1.616c.297 0 .545.044.744.133a.99.99 0 0 1 .447.37c.1.157.15.337.15.541a.822.822 0 0 1-.355.714c-.11.075-.234.13-.375.16v.04a.926.926 0 0 1 .76.471c.085.145.127.318.127.518 0 .216-.053.409-.16.578-.104.169-.26.302-.466.4a1.77 1.77 0 0 1-.763.147h-1.725Zm.854-.704h.695c.238 0 .412-.045.52-.137a.461.461 0 0 0 .164-.37.55.55 0 0 0-.08-.298.55.55 0 0 0-.231-.203.785.785 0 0 0-.353-.073h-.715v1.081Zm0-1.664h.632c.117 0 .221-.02.312-.062a.518.518 0 0 0 .217-.178.47.47 0 0 0 .08-.277.448.448 0 0 0-.155-.356c-.103-.09-.249-.135-.438-.135h-.648v1.008ZM53.142 32.942h-.914l1.393-4.072h1.1l1.392 4.072h-.915l-1.011-3.141h-.032l-1.013 3.141Zm-.057-1.6h2.16v.672h-2.16v-.672ZM56.598 32.942V28.87h1.593c.305 0 .565.055.78.165.217.109.382.263.495.463.115.2.172.433.172.702 0 .27-.058.503-.174.698a1.129 1.129 0 0 1-.502.446 1.838 1.838 0 0 1-.793.155h-1.066v-.692h.928c.163 0 .299-.023.406-.068a.484.484 0 0 0 .24-.203.645.645 0 0 0 .082-.336.67.67 0 0 0-.081-.342.497.497 0 0 0-.242-.21.986.986 0 0 0-.408-.074h-.576v3.368h-.854Zm2.18-1.853 1.004 1.853h-.942l-.982-1.853h.92ZM62.918 30.186a.9.9 0 0 0-.117-.256.782.782 0 0 0-.428-.312 1.022 1.022 0 0 0-.3-.042.963.963 0 0 0-.545.155 1.015 1.015 0 0 0-.363.451c-.086.197-.13.437-.13.72 0 .284.043.525.128.724.086.199.207.35.363.455a.981.981 0 0 0 .554.155c.193 0 .358-.034.495-.103a.737.737 0 0 0 .315-.296.886.886 0 0 0 .11-.452l.174.026h-1.04v-.648h1.688v.513c0 .358-.075.666-.224.923-.15.256-.356.453-.62.592a1.914 1.914 0 0 1-.902.207c-.378 0-.71-.084-.997-.252-.287-.17-.51-.41-.67-.722-.16-.313-.239-.684-.239-1.114 0-.33.047-.624.142-.883.096-.26.23-.48.402-.66.172-.18.373-.317.601-.411.229-.095.477-.142.743-.142.229 0 .442.034.639.102.197.066.372.16.524.282a1.525 1.525 0 0 1 .564.988h-.867ZM64.463 32.942V28.87h2.72v.71h-1.866v.97h1.727v.71h-1.727v.973h1.874v.71h-2.728ZM71.239 28.87v4.072H70.5l-1.756-2.563h-.03v2.563h-.853V28.87h.75l1.742 2.561h.035v-2.56h.85ZM71.79 29.58v-.71h3.315v.71H73.87v3.362h-.843V29.58H71.79ZM76.505 28.87v4.072h-.854V28.87h.854ZM80.583 28.87v4.072h-.737L78.09 30.38h-.03v2.563h-.853V28.87h.749l1.742 2.561h.036v-2.56h.85ZM84.998 30.906c0 .444-.083.822-.25 1.134-.166.311-.392.55-.678.713a1.903 1.903 0 0 1-.962.245 1.9 1.9 0 0 1-.966-.246 1.749 1.749 0 0 1-.676-.714c-.166-.312-.248-.689-.248-1.132 0-.444.082-.822.248-1.133.166-.312.39-.549.676-.712.285-.164.607-.247.966-.247.356 0 .676.083.962.247.286.163.512.4.678.712.167.311.25.69.25 1.133Zm-.865 0c0-.287-.043-.53-.128-.727a.984.984 0 0 0-.357-.45.954.954 0 0 0-.54-.153.954.954 0 0 0-.54.153.996.996 0 0 0-.359.45c-.084.197-.126.44-.126.727 0 .288.042.53.126.728a.996.996 0 0 0 .359.45.954.954 0 0 0 .54.152.954.954 0 0 0 .54-.153.984.984 0 0 0 .357-.449c.085-.198.128-.44.128-.728Z" fill="#000"/></svg>
